X:050 
T:Ducks in the Oats, The
F:file ID: cre.5/050ducks
B:CRE 5.058 (Lachain sa Choirce)
M:6/8
Q:160
R:jig
K:G
"D modal" [?]
A|cBc A2G|EGB cde|dcA AGA|cde ged|
cBc A2G|EAB cde|dcA AGE|EDD D2:|
d|efg ged|cAB cde|eaa age|edd d3|
efg ged|cAB cde|dBc AGE|EDD D2:|

%%%

